plugins/SetupItems.svg

<?xml version="1.0" encoding="UTF-8" standalone="no"?>
<!-- Created with Inkscape (http://www.inkscape.org/) -->

<svg
   xmlns:dc="http://purl.org/dc/elements/1.1/"
   xmlns:cc="http://creativecommons.org/ns#"
   xmlns:rdf="http://www.w3.org/1999/02/22-rdf-syntax-ns#"
   xmlns:svg="http://www.w3.org/2000/svg"
   xmlns="http://www.w3.org/2000/svg"
   xmlns:xlink="http://www.w3.org/1999/xlink"
   xmlns:sodipodi="http://sodipodi.sourceforge.net/DTD/sodipodi-0.dtd"
   xmlns:inkscape="http://www.inkscape.org/namespaces/inkscape"
   width="256"
   height="256"
   viewBox="0 0 67.733332 67.733336"
   version="1.1"
   id="svg8"
   inkscape:version="0.92.2 5c3e80d, 2017-08-06"
   sodipodi:docname="Include Setup.svg">
  <defs
     id="defs2">
    <linearGradient
       id="black-gradient">
      <stop
         offset="0"
         style="stop-color:#333333;stop-opacity:1"
         id="black1" />
      <stop
         offset="1"
         style="stop-color:#212121;stop-opacity:1"
         id="black2" />
    </linearGradient>
    <linearGradient
       id="blue-gradient">
      <stop
         offset="0"
         style="stop-color:#33ccff;stop-opacity:1"
         id="blue1" />
      <stop
         offset="1"
         style="stop-color:#06c1ff;stop-opacity:1"
         id="blue2" />
    </linearGradient>
    <linearGradient
       gradientTransform="matrix(1.1276503,0,0,1.1276503,-4033.1004,1421.0367)"
       gradientUnits="userSpaceOnUse"
       xlink:href="#black-gradient"
       y2="-1028.5905"
       x2="3494.25"
       y1="-1044.3878"
       x1="3494.25"
       id="black" />
    <linearGradient
       gradientTransform="matrix(1.1276503,0,0,1.1276503,-3971.5228,1427.6343)"
       gradientUnits="userSpaceOnUse"
       xlink:href="#blue-gradient"
       y2="-1026.9196"
       x2="3550.75"
       y1="-1045.5128"
       x1="3550.75"
       id="blue" />
  </defs>
  <sodipodi:namedview
     id="base"
     pagecolor="#525252"
     bordercolor="#ffffff"
     borderopacity="1"
     inkscape:pageopacity="0"
     inkscape:pageshadow="2"
     inkscape:zoom="2.2850806"
     inkscape:cx="34.733667"
     inkscape:cy="179.23002"
     inkscape:document-units="px"
     inkscape:current-layer="layer1"
     showgrid="true"
     units="px"
     guidecolor="#ff004a"
     guideopacity="0.49803922"
     showguides="true"
     inkscape:guide-bbox="true"
     inkscape:snap-grids="false"
     inkscape:object-nodes="true"
     inkscape:snap-others="false"
     inkscape:snap-nodes="true"
     inkscape:snap-global="true"
     inkscape:snap-to-guides="false"
     inkscape:object-paths="true">
    <inkscape:grid
       type="xygrid"
       id="grid992"
       empspacing="10"
       spacingx="0.26458334"
       spacingy="0.26458334"
       empcolor="#1d00ff"
       empopacity="0.25098039"
       color="#ff0031"
       opacity="0.1254902" />
  </sodipodi:namedview>
  <metadata
     id="metadata5">
    <rdf:RDF>
      <cc:Work
         rdf:about="">
        <dc:format>image/svg+xml</dc:format>
        <dc:type
           rdf:resource="http://purl.org/dc/dcmitype/StillImage" />
        <dc:title></dc:title>
      </cc:Work>
    </rdf:RDF>
  </metadata>
  <g
     inkscape:label="Layer 1"
     inkscape:groupmode="layer"
     id="layer1"
     transform="translate(0,-229.26665)">
    <path
       id="path910"
       style="fill:none;fill-rule:evenodd;stroke:#eeeeee;stroke-width:2.64583325;stroke-linecap:round;stroke-linejoin:round;stroke-miterlimit:4;stroke-dasharray:none;stroke-opacity:1"
       d="M 22.346951,274.82671 H 7.8735375 M 15.110244,267.59 v 14.47341"
       inkscape:connector-curvature="0" />
    <path
       d="M 14.287286,289.34779 H 6.2979635 m 3.9946615,-3.99466 v 7.98933"
       style="fill:none;fill-rule:evenodd;stroke:#eeeeee;stroke-width:2.64583325;stroke-linecap:round;stroke-linejoin:round;stroke-miterlimit:4;stroke-dasharray:none;stroke-opacity:1"
       id="path913"
       inkscape:connector-curvature="0" />
    <path
       id="path915"
       style="fill:none;fill-rule:evenodd;stroke:#eeeeee;stroke-width:2.64583325;stroke-linecap:round;stroke-linejoin:round;stroke-miterlimit:4;stroke-dasharray:none;stroke-opacity:1"
       d="M 34.85198,286.11598 H 22.115377 m 6.368302,-6.3683 v 12.7366"
       inkscape:connector-curvature="0" />
    <path
       d="M 63.683019,252.01662 H 50.135904 m 6.773558,-6.77356 v 13.54712"
       style="fill:none;fill-rule:evenodd;stroke:#eeeeee;stroke-width:2.64583325;stroke-linecap:round;stroke-linejoin:round;stroke-miterlimit:4;stroke-dasharray:none;stroke-opacity:1"
       id="path917"
       inkscape:connector-curvature="0" />
    <path
       id="path919"
       style="fill:none;fill-rule:evenodd;stroke:#eeeeee;stroke-width:2.64583325;stroke-linecap:round;stroke-linejoin:round;stroke-miterlimit:4;stroke-dasharray:none;stroke-opacity:1"
       d="m 47.009646,238.5274 h -7.641961 m 3.82098,-3.82098 v 7.64196"
       inkscape:connector-curvature="0" />
    <path
       style="opacity:1;fill:none;fill-opacity:1;stroke:#eeeeee;stroke-width:2.64583373;stroke-linecap:round;stroke-linejoin:round;stroke-miterlimit:4;stroke-dasharray:none;stroke-dashoffset:0;stroke-opacity:1;paint-order:normal"
       d="M 14.181615,230.59111 A 13.427811,13.448704 0 0 0 1.3243962,240.18189 H 13.671727 c 2.134142,0 3.852156,1.7207 3.852156,3.85814 0,2.13747 -1.718014,3.85814 -3.852156,3.85814 H 1.3293087 a 13.427811,13.448704 0 0 0 12.8523063,9.59076 13.427811,13.448704 0 0 0 8.165074,-2.79348 L 54.121814,286.52 c 1.509064,1.51143 3.939556,1.51143 5.44862,0 1.509069,-1.51141 1.509069,-3.9447 0,-5.45612 l -32.68093,-32.7308 a 13.427811,13.448704 0 0 0 0.720129,-4.29305 13.427811,13.448704 0 0 0 -13.428018,-13.44892 z"
       id="path921"
       inkscape:connector-curvature="0" />
  </g>
</svg>

<svg width="256" height="256" version="1.1" viewBox="0 0 67.733 67.733" xmlns="http://www.w3.org/2000/svg" xmlns:xlink="http://www.w3.org/1999/xlink">
 <g transform="translate(0 -229.27)" fill="none" stroke="#eee" stroke-linecap="round" stroke-linejoin="round">
  <g stroke-width="2.6458">
   <path d="m22.347 274.83h-14.473m7.2367-7.2367v14.473"/>
   <path d="m14.287 289.35h-7.9893m3.9947-3.9947v7.9893"/>
   <path d="m34.852 286.12h-12.737m6.3683-6.3683v12.737"/>
   <path d="m63.683 252.02h-13.547m6.7736-6.7736v13.547"/>
   <path d="m47.01 238.53h-7.642m3.821-3.821v7.642"/>
  </g>
  <path d="m14.182 230.59a13.428 13.449 0 0 0-12.857 9.5908h12.347c2.1341 0 3.8522 1.7207 3.8522 3.8581 0 2.1375-1.718 3.8581-3.8522 3.8581h-12.342a13.428 13.449 0 0 0 12.852 9.5908 13.428 13.449 0 0 0 8.1651-2.7935l31.775 31.825c1.5091 1.5114 3.9396 1.5114 5.4486 0 1.5091-1.5114 1.5091-3.9447 0-5.4561l-32.681-32.731a13.428 13.449 0 0 0 0.72013-4.293 13.428 13.449 0 0 0-13.428-13.449z" stroke-width="2.6458" style="paint-order:normal"/>
 </g>
</svg>
